X:11677
T:Nel campu acen flores
R:Pasudoble
C:Tradicional
S:Msica Tradicional Asturiana, (C) Tello & Tito. Asturies, 2001.
S:http://pagina.de/MusTradAst <telloytito@asturies.org>
A:Asturies
Z:Les cuarenta principales
M:2/4
L:1/8
Q:1/4=120
K:C
E/F/
|GG AA|G2 G2-|G4-|G3 E/F/|GG AA|GG EE|CC DD|E2 E2-|E4-|E3 E/F/|
|GG AA|G2 G2-|G4-|G3 E/F/|GG AA|GG EE|CC DD|C2 C2|G>F G>E|CC DD|
|E2 E2|G>F G>E|CC DD|C2 C2|
